X:3
T:Angels We Have Heard on High
M:4/4
L:1/8
K:G
 B2 B2 B2Bd| d3 c B4| B2BA B2Bd| B3 A G4| B2 B2 B2Bd| d3 c B4|\
 B2BA B2Bd| B3 A G4| d4edcB| c4dcBA| B4cBAG| A3 D D4|\
 G2 A2 B2 c2| B4 A4| d4 edcB| c4dcBA| B4 cBAG| A3 D D4| G2 A2 B2 c2|\
 B4 A4| G8|
W:Angels we have heard on high,
W:sweetly singing o'er the plains,
W:and the mountains in reply
W:echoing their joyous strains.
W:
W:Gloria in excelsis Deo,
W:gloria in excelsis Deo.
W:
W:Shepherds, why this jubilee?
W:Why your joyous strains prolong?
W:What the gladsome tidings be
W:which inspire your heav'nly song?
W:
W:Come to Bethlehem and see
W:him whose birth the angels sing;
W:come, adore on bended knee
W:Christ the Lord, the newborn King.